X:47
T:Nincsen pénzem
O:Kiskomárom
Q:"Tempo guisto"
M:4/4
L:1/4
K:Eb
cGcG | e<e d2 |
e/e/f/e/ d c | G F E z |
e/e/f/e/ d c | G/G/F/F/ E z | 
G/F/G/A/ B>E | D<C C z |

